flaticon/constructions/caulk-gun.svg

<svg xmlns="http://www.w3.org/2000/svg" width="32" height="32" viewBox="0 0 24 24">
    <path d="M 23.199219 8.378906 L 22.398438 8.378906 C 22.398438 7.941406 22.039062 7.578125 21.601562 7.578125 L 20.800781 7.578125 C 20.800781 6.898438 20.28125 6.378906 19.601562 6.378906 L 6.800781 6.378906 C 6.257812 6.378906 5.820312 6.707031 5.664062 7.183594 C 4.886719 7.234375 4.242188 7.710938 3.953125 8.378906 L 2.878906 8.378906 L 1.800781 7.378906 C 1.640625 7.21875 1.398438 7.21875 1.238281 7.378906 L 0.121094 8.5 C 0.0390625 8.578125 0 8.660156 0 8.78125 C 0 8.898438 0.0390625 8.980469 0.121094 9.058594 L 1.800781 10.660156 C 1.878906 10.738281 1.960938 10.78125 2.078125 10.78125 L 3.660156 10.78125 L 3.238281 16.261719 C 3.199219 16.621094 3.320312 16.941406 3.558594 17.179688 C 3.800781 17.460938 4.121094 17.578125 4.441406 17.578125 C 5.519531 17.578125 6.441406 16.78125 6.558594 15.660156 L 6.777344 12.78125 C 6.785156 12.78125 6.792969 12.78125 6.800781 12.78125 L 7.273438 12.78125 L 8.160156 16.699219 C 8.238281 17.019531 8.441406 17.300781 8.71875 17.460938 C 8.921875 17.578125 9.121094 17.621094 9.320312 17.621094 C 9.441406 17.621094 9.558594 17.578125 9.679688 17.539062 C 10.71875 17.261719 11.359375 16.21875 11.160156 15.140625 L 10.761719 12.78125 L 19.601562 12.78125 C 20.28125 12.78125 20.800781 12.261719 20.800781 11.578125 L 21.601562 11.578125 C 22.039062 11.578125 22.398438 11.21875 22.398438 10.78125 L 23.199219 10.78125 C 23.640625 10.78125 24 10.421875 24 9.980469 L 24 9.179688 C 24 8.738281 23.640625 8.378906 23.199219 8.378906 Z M 17.199219 7.179688 L 17.199219 8.78125 C 17.199219 9.019531 17.039062 9.179688 16.800781 9.179688 L 9.601562 9.179688 C 9.359375 9.179688 9.199219 9.019531 9.199219 8.78125 L 9.199219 7.179688 Z M 3.71875 9.980469 L 2.238281 9.980469 L 0.960938 8.78125 L 1.558594 8.21875 L 2.480469 9.058594 C 2.519531 9.140625 2.640625 9.179688 2.71875 9.179688 L 3.78125 9.179688 L 3.722656 9.960938 Z M 5.761719 15.539062 L 5.761719 15.621094 C 5.679688 16.261719 5.121094 16.78125 4.441406 16.78125 C 4.320312 16.78125 4.238281 16.738281 4.160156 16.660156 C 4.078125 16.539062 4.039062 16.460938 4.039062 16.339844 L 4.570312 9.390625 L 4.601562 9.058594 C 4.601562 9.019531 4.640625 8.980469 4.640625 8.898438 C 4.65625 8.855469 4.660156 8.804688 4.652344 8.753906 C 4.789062 8.335938 5.167969 8.046875 5.601562 7.980469 L 5.601562 11.578125 C 5.601562 11.945312 5.75 12.265625 6 12.484375 Z M 10.398438 15.179688 L 10.398438 15.261719 C 10.519531 15.941406 10.121094 16.578125 9.480469 16.78125 C 9.359375 16.820312 9.238281 16.78125 9.160156 16.738281 C 9.039062 16.699219 9 16.621094 8.960938 16.5 L 8.121094 12.78125 L 9.960938 12.78125 Z M 20 11.578125 C 20 11.820312 19.839844 11.980469 19.601562 11.980469 L 18.398438 11.980469 L 18.398438 11.179688 C 18.398438 10.941406 18.238281 10.78125 18 10.78125 C 17.761719 10.78125 17.601562 10.941406 17.601562 11.179688 L 17.601562 11.980469 L 15.199219 11.980469 L 15.199219 11.179688 C 15.199219 10.941406 15.039062 10.78125 14.800781 10.78125 C 14.558594 10.78125 14.398438 10.941406 14.398438 11.179688 L 14.398438 11.980469 L 12 11.980469 L 12 11.179688 C 12 10.941406 11.839844 10.78125 11.601562 10.78125 C 11.359375 10.78125 11.199219 10.941406 11.199219 11.179688 L 11.199219 11.980469 L 8.800781 11.980469 L 8.800781 11.179688 C 8.800781 10.941406 8.640625 10.78125 8.398438 10.78125 C 8.160156 10.78125 8 10.941406 8 11.179688 L 8 11.980469 L 6.800781 11.980469 C 6.761719 11.980469 6.726562 11.976562 6.695312 11.96875 C 6.679688 11.957031 6.660156 11.949219 6.640625 11.941406 C 6.480469 11.859375 6.398438 11.738281 6.398438 11.578125 L 6.398438 7.578125 C 6.398438 7.339844 6.558594 7.179688 6.800781 7.179688 L 8.398438 7.179688 L 8.398438 8.78125 C 8.398438 9.460938 8.921875 9.980469 9.601562 9.980469 L 16.800781 9.980469 C 17.480469 9.980469 18 9.460938 18 8.78125 L 18 7.179688 L 19.601562 7.179688 C 19.839844 7.179688 20 7.339844 20 7.578125 Z M 21.601562 10.78125 L 20.800781 10.78125 L 20.800781 8.378906 L 21.601562 8.378906 Z M 23.199219 9.980469 L 22.398438 9.980469 L 22.398438 9.179688 L 23.199219 9.179688 Z M 23.199219 9.980469"/>
</svg>

<svg xmlns="http://www.w3.org/2000/svg" width="32" height="32" viewBox="0 0 24 24">
    <path d="M23.2 8.379h-.802c0-.438-.359-.8-.796-.8H20.8c0-.68-.52-1.2-1.2-1.2h-12.8c-.543 0-.98.328-1.137.805a1.995 1.995 0 0 0-1.71 1.195H2.878l-1.078-1a.39.39 0 0 0-.563 0L.121 8.5A.356.356 0 0 0 0 8.781c0 .117.04.2.121.278l1.68 1.601c.078.078.16.121.277.121H3.66l-.422 5.48c-.039.36.082.68.32.919.243.28.563.398.883.398 1.079 0 2-.797 2.118-1.918l.218-2.879h.496L8.16 16.7c.078.32.281.602.559.762.203.117.402.16.601.16.121 0 .239-.043.36-.082 1.039-.277 1.68-1.32 1.48-2.398l-.398-2.36h8.84c.68 0 1.199-.52 1.199-1.203h.8a.8.8 0 0 0 .797-.797h.801c.442 0 .801-.36.801-.8V9.18c0-.442-.36-.801-.8-.801zm-6-1.2v1.602c0 .239-.16.399-.4.399H9.603c-.243 0-.403-.16-.403-.399V7.18zM3.718 9.98h-1.48L.96 8.781l.598-.562.921.84c.04.082.16.12.239.12H3.78l-.058.782zm2.043 5.56v.081a1.34 1.34 0 0 1-1.32 1.16.369.369 0 0 1-.282-.12c-.082-.122-.12-.2-.12-.321l.53-6.95.032-.331c0-.04.039-.079.039-.16a.296.296 0 0 0 .011-.145c.137-.418.516-.707.95-.774v3.598c0 .367.148.688.398.906zm4.636-.36v.082a1.338 1.338 0 0 1-.918 1.52.414.414 0 0 1-.32-.044c-.12-.039-.16-.117-.2-.238l-.839-3.719h1.84zM20 11.578c0 .242-.16.402-.398.402h-1.204v-.8c0-.239-.16-.399-.398-.399-.238 0-.398.16-.398.399v.8h-2.403v-.8c0-.239-.16-.399-.398-.399-.242 0-.403.16-.403.399v.8H12v-.8c0-.239-.16-.399-.398-.399-.243 0-.403.16-.403.399v.8H8.801v-.8c0-.239-.16-.399-.403-.399-.238 0-.398.16-.398.399v.8H6.8a.436.436 0 0 1-.105-.011c-.015-.012-.035-.02-.054-.028-.16-.082-.243-.203-.243-.363v-4c0-.238.16-.398.403-.398h1.597V8.78c0 .68.524 1.2 1.204 1.2H16.8c.68 0 1.199-.52 1.199-1.2V7.18h1.602c.238 0 .398.16.398.398zm1.602-.797H20.8V8.38h.8zm1.597-.8h-.8V9.18h.8zm0 0"/>
</svg>
